brandFactory_export/3.Masa/Servicio tecnico telefonia fija_3Masa.svg

<?xml version="1.0" encoding="UTF-8"?>
<svg width="24px" height="24px" viewBox="0 0 24 24" version="1.1" xmlns="http://www.w3.org/2000/svg" xmlns:xlink="http://www.w3.org/1999/xlink">
    <title>3.Masa/Servicio tecnico telefonia fija_3Masa</title>
    <g id="Symbols" stroke="none" stroke-width="1" fill="none" fill-rule="evenodd">
        <g id="3.Masa/Servicio-tecnico-telefonia-fija_3Masa" fill="#5CB615" fill-rule="nonzero">
            <path d="M4.66218487,4.88498131e-13 C5.69411765,4.88498131e-13 6.72268908,0.497478992 7.70420168,1.48235294 C8.07058824,1.83865546 8.38655462,2.24201681 8.6487395,2.68235294 C9.16638655,3.51596639 9.3512605,4.37310924 9.20672269,5.23361345 C9.06218487,6.09411765 8.57815126,6.93781513 7.77478992,7.74453782 C7.58655462,7.93613445 7.38823529,8.11428571 7.17647059,8.2789916 C7.06890756,8.4605042 7.20672269,8.98823529 7.77142857,9.80840336 C7.99961585,10.1422329 8.27694186,10.4946555 8.57585857,10.8473057 L13.9058824,5.51596639 C13.9193277,5.13613445 13.9596639,4.76302521 14.0268908,4.38991597 C14.2151261,3.36134454 14.5882353,2.56134454 15.1327731,2.01680672 C15.6739496,1.4789916 16.4605042,1.1092437 17.4689076,0.921008403 C17.8991597,0.840336134 18.3361345,0.796638655 18.7731092,0.789915966 L18.7731092,0.789915966 C19.4352941,0.789915966 19.989916,1.14285714 20.2218487,1.70756303 C20.4537815,2.27226891 20.3092437,2.91428571 19.8453782,3.37815126 L19.8453782,3.37815126 L19.2134454,4.01008403 L19.2605042,4.33613445 L19.5831933,4.37983193 L20.2184874,3.74789916 C20.5310924,3.43193277 20.9310924,3.2605042 21.3378151,3.2605042 C21.8420168,3.2605042 22.312605,3.52605042 22.5747899,3.95966387 C22.7294118,4.21848739 22.810084,4.51428571 22.8068236,4.81344538 C22.8,5.24033613 22.7596639,5.67058824 22.6823529,6.0907563 C22.497479,7.11932773 22.1243697,7.91932773 21.5798319,8.46386555 C21.0386555,9.00504202 20.2554622,9.37478992 19.2436975,9.56302521 C18.8605042,9.63361345 18.4739496,9.67731092 18.0840336,9.6907563 L18.0840336,9.6907563 L12.7505671,15.0325803 C12.9580158,15.2086304 13.1545726,15.3678563 13.3411765,15.512605 C14.4504202,16.3697479 14.9848739,16.497479 15.2067227,16.497479 C15.2571429,16.5008403 15.307563,16.4907563 15.3512605,16.4638655 C15.5159664,16.2521008 15.6941176,16.0504202 15.8857143,15.8621849 C16.8672269,14.8806723 17.902521,14.3798319 18.9579832,14.3798319 C19.6302521,14.3798319 20.2991597,14.5848739 20.9478992,14.9848739 C21.3882353,15.2470588 21.7915966,15.5630252 22.1478992,15.9294118 C23.112605,16.8941176 23.610084,17.8957983 23.6268908,18.9109244 C23.6470588,19.9630252 23.1529412,21.0252101 22.1546218,22.0672269 C21.805042,22.4336134 21.3176471,22.7831933 21.1563025,22.9008403 L21.1361345,22.9176471 L21.1058824,22.9378151 C20.4336134,23.4016807 19.5865546,23.6369748 18.5848739,23.6369748 C17.0487395,23.6369748 15.2,23.0689076 13.2369748,21.9966387 C11.8234877,21.224085 10.3880798,20.217708 8.94526413,18.9899475 C8.92910307,19.3133253 8.89123649,19.6331333 8.83361345,19.9529412 C8.64537815,20.9781513 8.27226891,21.7781513 7.72773109,22.3226891 C7.18655462,22.8638655 6.40336134,23.2336134 5.39159664,23.4218487 C4.96134454,23.502521 4.52436975,23.5462185 4.08403361,23.5529412 L4.08403361,23.5529412 C3.42184874,23.5529412 2.86722689,23.2 2.63529412,22.6352941 C2.40336134,22.0705882 2.54789916,21.4285714 3.01176471,20.9647059 L3.01176471,20.9647059 L3.64369748,20.3294118 L3.59663866,20.0033613 L3.27058824,19.9563025 L2.63865546,20.5882353 C2.32605042,20.9042017 1.92605042,21.0756303 1.51932773,21.0756303 C1.01203353,21.0756369 0.541636611,20.810481 0.278991596,20.3764706 C0.124369748,20.1210084 0.0470588234,19.8252101 0.0503150955,19.5260504 C0.057142857,19.0991597 0.0974789914,18.6689076 0.174789916,18.2487395 C0.359663865,17.2201681 0.732773109,16.4201681 1.27731092,15.8756303 C1.81512605,15.3378151 2.60168067,14.9680672 3.61008403,14.7798319 C3.99663866,14.7092437 4.38319328,14.6655462 4.77310924,14.6521008 L4.63035878,14.6602 C2.86093587,12.571732 1.54522506,10.4929591 0.769747899,8.5512605 C-0.231932773,6.04369748 -0.255462185,3.90252101 0.699159664,2.51764706 L0.719327731,2.48739496 L0.736134454,2.46722689 C0.850420168,2.30588235 1.20336134,1.81848739 1.5697479,1.46890756 C2.58823529,0.494117647 3.6302521,4.88498131e-13 4.66218487,4.88498131e-13 Z M18.7764706,2.13445378 C18.712605,2.13445378 16.9109244,2.14453782 16.0840336,2.96806723 C15.3137255,3.73837535 15.2551821,5.35884687 15.2507742,5.6235761 L15.2504202,5.6605042 C15.2504202,5.88571429 15.1226891,6.20168067 14.9613445,6.36302521 L14.9613445,6.36302521 L5.62016807,15.7008403 C5.45882353,15.8588235 5.14285714,15.989916 4.91764706,15.989916 L4.91764706,15.989916 C4.85378151,15.989916 3.05210084,15.9966387 2.22521008,16.8235294 C1.45490196,17.5938375 1.39635714,19.2143091 1.39194903,19.4790383 L1.39159497,19.5159664 C1.39159497,19.6537815 1.44201681,19.7277311 1.51596639,19.7277311 C1.56302521,19.7277311 1.62352941,19.697479 1.68403361,19.6369748 L1.68403361,19.6369748 L2.50420168,18.8201681 C2.64537815,18.6789916 2.90756303,18.5815126 3.11932773,18.5815126 C3.14621849,18.5815126 3.17647059,18.5848739 3.20336134,18.5882353 L3.20336134,18.5882353 L4.37647059,18.7563025 C4.60168067,18.789916 4.81008403,18.9983193 4.84369748,19.2235294 L4.84369748,19.2235294 L5.01176471,20.3966387 C5.04537815,20.6218487 4.94117647,20.9344538 4.77983193,21.0957983 L4.77983193,21.0957983 L3.96302521,21.912605 C3.80168067,22.0705882 3.85882353,22.205042 4.08403361,22.205042 C4.14453781,22.205042 5.94621849,22.1983193 6.77310924,21.3714286 C7.61344538,20.5310924 7.60672269,18.6789916 7.60672269,18.6789916 C7.60672269,18.4537815 7.73445378,18.1378151 7.89579832,17.9764706 L7.89579832,17.9764706 L17.2403361,8.63865546 C17.3983193,8.48067227 17.7142857,8.34957983 17.9394958,8.34957983 L17.9394958,8.34957983 L17.9604001,8.34947485 C18.1581865,8.34744484 19.8409938,8.30690537 20.6319328,7.51596639 C21.4722689,6.67563025 21.4655479,4.82352941 21.4655479,4.82352941 C21.4655479,4.68571429 21.4151261,4.61176471 21.3411765,4.61176471 C21.2941176,4.61176471 21.2336134,4.63865546 21.1731092,4.70252101 L21.1731092,4.70252101 L20.3563025,5.51932773 C20.2151261,5.6605042 19.9529412,5.75798319 19.7411765,5.75798319 C19.7142857,5.75798319 19.6840336,5.75462185 19.6571429,5.7512605 L19.6571429,5.7512605 L18.4840336,5.58319328 C18.2588235,5.54957983 18.0504202,5.34117647 18.0168067,5.11596639 L18.0168067,5.11596639 L17.8487395,3.94285714 C17.8151261,3.71764706 17.9193277,3.40504202 18.0806723,3.24369748 L18.0806723,3.24369748 L18.897479,2.42689076 C19.0588235,2.26554622 19.0016807,2.13445378 18.7764706,2.13445378 Z" id="Servicio-tecnico-telefonia-fija_3Masa"></path>
        </g>
    </g>
</svg>

<svg width="24" height="24" viewBox="0 0 24 24" xmlns="http://www.w3.org/2000/svg"><path d="M4.662 0c1.032 0 2.06.497 3.042 1.482.367.357.683.76.945 1.2.517.834.702 1.691.558 2.552-.145.86-.629 1.704-1.432 2.51-.188.192-.387.37-.599.535-.107.182.03.71.595 1.53.229.333.506.686.805 1.038l5.33-5.331a7.9 7.9 0 01.12-1.126c.19-1.029.562-1.829 1.107-2.373.54-.538 1.328-.908 2.336-1.096.43-.08.867-.124 1.304-.131.662 0 1.217.353 1.449.918.232.564.087 1.206-.377 1.67l-.632.632.048.326.322.044.635-.632a1.579 1.579 0 011.12-.487c.504 0 .975.265 1.237.699.154.258.235.554.232.853a7.767 7.767 0 01-.125 1.278c-.185 1.028-.558 1.828-1.102 2.373-.541.541-1.325.91-2.336 1.099-.383.07-.77.114-1.16.128l-5.333 5.342c.207.176.404.335.59.48 1.11.857 1.644.984 1.866.984.05.004.1-.006.144-.033.165-.212.343-.414.535-.602.981-.981 2.017-1.482 3.072-1.482.672 0 1.341.205 1.99.605.44.262.844.578 1.2.944.965.965 1.462 1.967 1.479 2.982.02 1.052-.474 2.114-1.472 3.156-.35.367-.837.716-.999.834l-.02.017-.03.02c-.672.464-1.52.699-2.521.699-1.536 0-3.385-.568-5.348-1.64-1.414-.773-2.849-1.78-4.292-3.007a7.539 7.539 0 01-.111.963c-.189 1.025-.562 1.825-1.106 2.37-.541.54-1.325.91-2.336 1.099-.43.08-.868.124-1.308.13-.662 0-1.217-.352-1.449-.917-.232-.564-.087-1.206.377-1.67l.632-.636-.047-.326-.326-.047-.632.632a1.579 1.579 0 01-1.12.488 1.45 1.45 0 01-1.24-.7 1.609 1.609 0 01-.229-.85c.007-.427.047-.857.125-1.277.185-1.029.558-1.829 1.102-2.373.538-.538 1.325-.908 2.333-1.096.387-.07.773-.114 1.163-.128l-.143.008C2.86 12.572 1.545 10.493.77 8.551-.232 6.044-.255 3.903.7 2.518l.02-.03.016-.02c.114-.162.467-.65.834-1C2.588.495 3.63 0 4.662 0zm14.114 2.134c-.063 0-1.865.01-2.692.834-.77.77-.829 2.39-.833 2.656v.037c0 .225-.128.54-.29.702l-9.34 9.338a1.16 1.16 0 01-.703.289c-.064 0-1.866.007-2.693.834-.77.77-.829 2.39-.833 2.655v.037c0 .138.05.212.124.212.047 0 .108-.03.168-.091l.82-.817a.953.953 0 01.615-.238c.027 0 .057.003.084.006l1.173.168a.588.588 0 01.468.468l.168 1.173a.92.92 0 01-.232.699l-.817.817c-.161.158-.104.292.121.292.06 0 1.862-.007 2.69-.834.84-.84.833-2.692.833-2.692 0-.225.127-.541.289-.703L17.24 8.64c.158-.158.474-.29.7-.29h.02c.198-.002 1.881-.042 2.672-.833.84-.84.834-2.692.834-2.692 0-.138-.05-.212-.125-.212-.047 0-.107.027-.168.09l-.817.817a.953.953 0 01-.615.239.708.708 0 01-.084-.007l-1.173-.168a.588.588 0 01-.467-.467l-.168-1.173a.92.92 0 01.232-.7l.816-.816c.162-.161.105-.293-.12-.293z" fill="#5CB615" fill-rule="nonzero"/></svg>
